public/images/cross.svg

<svg fill="none" height="40" viewBox="0 0 40 40" width="40" xmlns="http://www.w3.org/2000/svg"><path clip-rule="evenodd" d="m17.8788 20.0001-16.939347-16.93933 2.121317-2.121317 16.93933 16.939347 16.9394-16.939347 2.1213 2.121317-16.9394 16.93933 16.9394 16.9394-2.1213 2.1213-16.9394-16.9394-16.93933 16.9394-2.121317-2.1213z" fill="#f00" fill-rule="evenodd"/></svg>

<svg width="40" height="40" viewBox="0 0 40 40" fill="none" xmlns="http://www.w3.org/2000/svg">
<path fill-rule="evenodd" clip-rule="evenodd" d="M17.8788 20.0001L0.939453 3.06077L3.06077 0.939453L20.0001 17.8788L36.9395 0.939453L39.0608 3.06077L22.1214 20.0001L39.0608 36.9395L36.9395 39.0608L20.0001 22.1214L3.06077 39.0608L0.939453 36.9395L17.8788 20.0001Z" fill="#FF0000"/>
</svg>
